public/swb_pompe1.svg

<?xml version="1.0" encoding="UTF-8" standalone="no"?>
<svg
   version="1.1"
   width="1000"
   height="1000"
   viewBox="0 0 1000 1000"
   xml:space="preserve"
   id="svg192"
   sodipodi:docname="435819935-8916cb6d-c332-4f6b-b41b-b133e41b44ad.svg"
   inkscape:version="1.4 (86a8ad7, 2024-10-11)"
   xmlns:inkscape="http://www.inkscape.org/namespaces/inkscape"
   xmlns:sodipodi="http://sodipodi.sourceforge.net/DTD/sodipodi-0.dtd"
   xmlns="http://www.w3.org/2000/svg"
   xmlns:svg="http://www.w3.org/2000/svg"><sodipodi:namedview
   id="namedview194"
   pagecolor="#ffffff"
   bordercolor="#000000"
   borderopacity="0.25"
   inkscape:showpageshadow="2"
   inkscape:pageopacity="0.0"
   inkscape:pagecheckerboard="0"
   inkscape:deskcolor="#d1d1d1"
   showgrid="false"
   inkscape:zoom="0.37192138"
   inkscape:cx="693.69499"
   inkscape:cy="627.82085"
   inkscape:window-width="1920"
   inkscape:window-height="1009"
   inkscape:window-x="1912"
   inkscape:window-y="-8"
   inkscape:window-maximized="1"
   inkscape:current-layer="svg192"
   showguides="false"
   inkscape:lockguides="false"><sodipodi:guide
     position="120,744.18703"
     orientation="1,0"
     id="guide1"
     inkscape:locked="false" /><sodipodi:guide
     position="225.78275,119.99992"
     orientation="0,-1"
     id="guide2"
     inkscape:locked="false" /><sodipodi:guide
     position="880.00011,615.16832"
     orientation="1,0"
     id="guide3"
     inkscape:locked="false" /><sodipodi:guide
     position="408.18852,879.99991"
     orientation="0,-1"
     id="guide4"
     inkscape:locked="false" /></sodipodi:namedview>
<desc
   id="desc163">Created with Fabric.js 3.5.0</desc>
<defs
   id="defs165"><inkscape:path-effect
   effect="fillet_chamfer"
   id="path-effect25"
   is_visible="true"
   lpeversion="1"
   nodesatellites_param="F,0,0,1,0,59.016393,0,1 @ F,0,0,1,0,0,0,1 @ F,0,0,1,0,0,0,1 @ F,0,0,1,0,60,0,1"
   radius="0"
   unit="px"
   method="auto"
   mode="F"
   chamfer_steps="1"
   flexible="false"
   use_knot_distance="true"
   apply_no_radius="true"
   apply_with_radius="true"
   only_selected="false"
   hide_knots="false" /><inkscape:path-effect
   effect="fillet_chamfer"
   id="path-effect23"
   is_visible="true"
   lpeversion="1"
   nodesatellites_param="F,0,0,1,0,38.18852,0,1 @ F,0,0,1,0,0,0,1 @ F,0,0,1,0,0,0,1 @ F,0,1,1,0,37.986572,0,1"
   radius="0"
   unit="px"
   method="auto"
   mode="F"
   chamfer_steps="1"
   flexible="false"
   use_knot_distance="true"
   apply_no_radius="true"
   apply_with_radius="true"
   only_selected="false"
   hide_knots="false" /><inkscape:path-effect
   effect="fillet_chamfer"
   id="path-effect21"
   is_visible="true"
   lpeversion="1"
   nodesatellites_param="F,0,0,1,0,0,0,1 @ F,0,0,1,0,0,0,1 @ F,0,0,1,0,0,0,1 @ F,0,0,1,0,0,0,1"
   radius="0"
   unit="px"
   method="auto"
   mode="F"
   chamfer_steps="1"
   flexible="false"
   use_knot_distance="true"
   apply_no_radius="true"
   apply_with_radius="true"
   only_selected="false"
   hide_knots="false" /><inkscape:path-effect
   effect="fillet_chamfer"
   id="path-effect19"
   is_visible="true"
   lpeversion="1"
   nodesatellites_param="F,0,0,1,0,59.016393,0,1 @ F,0,0,1,0,0,0,1 @ F,0,0,1,0,0,0,1 @ F,0,0,1,0,60,0,1"
   radius="0"
   unit="px"
   method="auto"
   mode="F"
   chamfer_steps="1"
   flexible="false"
   use_knot_distance="true"
   apply_no_radius="true"
   apply_with_radius="true"
   only_selected="false"
   hide_knots="false" /><inkscape:path-effect
   effect="fillet_chamfer"
   id="path-effect14"
   is_visible="true"
   lpeversion="1"
   nodesatellites_param="F,0,0,1,0,0,0,1 @ F,0,0,1,0,48.325522,0,1 @ F,0,0,1,0,0,0,1 @ F,0,0,1,0,0,0,1 @ F,0,0,1,0,0,0,1 @ F,0,0,1,0,50,0,1 @ F,0,0,1,0,0,0,1 @ F,0,0,1,0,0,0,1"
   radius="0"
   unit="px"
   method="auto"
   mode="F"
   chamfer_steps="1"
   flexible="false"
   use_knot_distance="true"
   apply_no_radius="true"
   apply_with_radius="true"
   only_selected="false"
   hide_knots="false" /><inkscape:path-effect
   effect="fillet_chamfer"
   id="path-effect13"
   is_visible="true"
   lpeversion="1"
   nodesatellites_param="F,0,0,1,0,59.016393,0,1 @ F,0,0,1,0,0,0,1 @ F,0,0,1,0,0,0,1 @ F,0,0,1,0,60,0,1"
   radius="0"
   unit="px"
   method="auto"
   mode="F"
   chamfer_steps="1"
   flexible="false"
   use_knot_distance="true"
   apply_no_radius="true"
   apply_with_radius="true"
   only_selected="false"
   hide_knots="false" /><inkscape:path-effect
   effect="fillet_chamfer"
   id="path-effect11"
   is_visible="true"
   lpeversion="1"
   nodesatellites_param="F,0,0,1,0,38.18852,0,1 @ F,0,0,1,0,0,0,1 @ F,0,0,1,0,0,0,1 @ F,0,1,1,0,37.986572,0,1"
   radius="0"
   unit="px"
   method="auto"
   mode="F"
   chamfer_steps="1"
   flexible="false"
   use_knot_distance="true"
   apply_no_radius="true"
   apply_with_radius="true"
   only_selected="false"
   hide_knots="false" /><inkscape:path-effect
   effect="fillet_chamfer"
   id="path-effect9"
   is_visible="true"
   lpeversion="1"
   nodesatellites_param="F,0,0,1,0,59.016393,0,1 @ F,0,0,1,0,0,0,1 @ F,0,0,1,0,0,0,1 @ F,0,0,1,0,60,0,1"
   radius="0"
   unit="px"
   method="auto"
   mode="F"
   chamfer_steps="1"
   flexible="false"
   use_knot_distance="true"
   apply_no_radius="true"
   apply_with_radius="true"
   only_selected="false"
   hide_knots="false" /><inkscape:path-effect
   effect="fillet_chamfer"
   id="path-effect8"
   is_visible="true"
   lpeversion="1"
   nodesatellites_param="F,0,0,1,0,0,0,1 @ F,0,0,1,0,0,0,1 @ F,0,0,1,0,0,0,1 @ F,0,0,1,0,0,0,1"
   radius="0"
   unit="px"
   method="auto"
   mode="F"
   chamfer_steps="1"
   flexible="false"
   use_knot_distance="true"
   apply_no_radius="true"
   apply_with_radius="true"
   only_selected="false"
   hide_knots="false" /><inkscape:path-effect
   effect="fillet_chamfer"
   id="path-effect6"
   is_visible="true"
   lpeversion="1"
   nodesatellites_param="F,0,0,1,0,0,0,1 @ F,0,0,1,0,0,0,1 @ F,0,0,1,0,0,0,1 @ F,0,0,1,0,0,0,1"
   radius="0"
   unit="px"
   method="auto"
   mode="F"
   chamfer_steps="1"
   flexible="false"
   use_knot_distance="true"
   apply_no_radius="true"
   apply_with_radius="true"
   only_selected="false"
   hide_knots="false" /><inkscape:path-effect
   effect="fillet_chamfer"
   id="path-effect5"
   is_visible="true"
   lpeversion="1"
   nodesatellites_param="F,0,0,1,0,48.928182,0,1 @ F,0,0,1,0,0,0,1 @ F,0,0,1,0,0,0,1 @ F,0,0,1,0,0,0,1"
   radius="0"
   unit="px"
   method="auto"
   mode="F"
   chamfer_steps="1"
   flexible="false"
   use_knot_distance="true"
   apply_no_radius="true"
   apply_with_radius="true"
   only_selected="false"
   hide_knots="false" />



		
		
		
		
		










</defs>
<rect
   x="0"
   y="0"
   width="100%"
   height="100%"
   fill="#ffffff"
   id="rect167"
   style="fill:none;stroke:none"
   inkscape:label="Fond"
   sodipodi:insensitive="true" />
<path
   style="display:inline;fill:none;fill-rule:nonzero;stroke:none;stroke-width:75.7576;stroke-linecap:round;stroke-linejoin:round;stroke-miterlimit:4;stroke-dasharray:none;stroke-dashoffset:0"
   d="M 954.5455,45.4545 V 954.5457 H 45.4543 V 45.4545 Z"
   stroke-linecap="round"
   id="path169"
   inkscape:label="path169" />
<path
   style="fill:none;stroke:#000000;stroke-width:60;stroke-linecap:round;stroke-linejoin:round;stroke-dasharray:none;paint-order:fill markers stroke"
   d="M 250,759.01639 V 860 H 750 V 760 A 60,60 45 0 0 690,700 H 309.01639 A 59.016393,59.016393 135 0 0 250,759.01639 Z"
   id="path5"
   sodipodi:nodetypes="ccccc"
   inkscape:label="Base"
   inkscape:path-effect="#path-effect9"
   inkscape:original-d="M 250,700 V 860 H 750 V 700 Z"
   transform="translate(-84.622519,10.754961)" /><path
   style="fill:none;stroke:#000000;stroke-width:52.8875;stroke-linecap:round;stroke-linejoin:round;stroke-dasharray:none;paint-order:fill markers stroke"
   d="M 310,739.01639 V 1119.0164 H 690 V 739.01639 Z"
   id="path6"
   sodipodi:nodetypes="ccccc"
   inkscape:path-effect="#path-effect8"
   inkscape:original-d="M 310,739.01639 V 1119.0164 H 690 V 739.01639 Z"
   transform="matrix(0.97348041,0,0,1.2917597,-71.362724,-737.11898)"
   inkscape:label="Corps" /><path
   style="fill:none;stroke:#000000;stroke-width:80;stroke-linecap:round;stroke-linejoin:round;stroke-dasharray:none;paint-order:fill markers stroke"
   d="M 370,758.18852 V 790 H 630 V 757.98657 A 37.986572,37.986572 45 0 0 592.01343,720 l -183.82491,0 A 38.18852,38.18852 135 0 0 370,758.18852 Z"
   id="path9"
   sodipodi:nodetypes="ccccc"
   inkscape:label="Bouchon"
   inkscape:path-effect="#path-effect11"
   inkscape:original-d="m 370,720 v 70 h 260 v -70 z"
   transform="translate(-84.622519,-578.35764)" /><path
   style="fill:none;stroke:#000000;stroke-width:69.9055;stroke-linecap:round;stroke-linejoin:round;stroke-dasharray:none;paint-order:fill markers stroke"
   d="m 194.11054,362.76309 c 0,0 73.11152,-29.08063 109.92489,-25.00623 37.48073,4.14826 72.38942,50.01246 109.92488,50.01246 37.53546,0 72.44415,-45.86422 109.92488,-50.01246 36.81337,-4.07438 109.92489,25.00634 109.92489,25.00634"
   id="path4"
   sodipodi:nodetypes="csssc"
   inkscape:label="Eau" /><path
   style="fill:none;stroke:#000000;stroke-width:69.9055;stroke-linecap:round;stroke-linejoin:round;stroke-dasharray:none;paint-order:fill markers stroke"
   d="m 194.19132,500.0579 c 0,0 73.11152,-29.08063 109.92489,-25.00623 37.48073,4.14826 72.38942,50.01246 109.92488,50.01246 37.53546,0 72.44415,-45.86422 109.92488,-50.01246 36.81337,-4.07438 109.92489,25.00634 109.92489,25.00634"
   id="path4-0"
   sodipodi:nodetypes="csssc"
   inkscape:label="Eau" /><path
   style="fill:none;fill-opacity:1;stroke:#000000;stroke-width:60;stroke-linecap:round;stroke-linejoin:round;stroke-dasharray:none;stroke-opacity:1"
   d="M 625.84829,635.17089 H 734.62917 V 233.29221 H 809.939"
   id="path1" /></svg>

<svg width="1000" height="1000" xml:space="preserve" xmlns="http://www.w3.org/2000/svg">
    <rect width="100%" height="100%" fill="#fff" style="fill:none;stroke:none"/>
    <path style="display:inline;fill:none;fill-rule:nonzero;stroke:none;stroke-width:75.7576;stroke-linecap:round;stroke-linejoin:round;stroke-miterlimit:4;stroke-dasharray:none;stroke-dashoffset:0" d="M954.545 45.455v909.09H45.455V45.456Z"/>
    <path style="fill:none;stroke:#000;stroke-width:60;stroke-linecap:round;stroke-linejoin:round;stroke-dasharray:none;paint-order:fill markers stroke" d="M250 759.016V860h500V760a60 60 45 0 0-60-60H309.016A59.016 59.016 135 0 0 250 759.016Z" transform="translate(-84.623 10.755)"/>
    <path style="fill:none;stroke:#000;stroke-width:52.8875;stroke-linecap:round;stroke-linejoin:round;stroke-dasharray:none;paint-order:fill markers stroke" d="M310 739.016v380h380v-380Z" transform="matrix(.97348 0 0 1.29176 -71.363 -737.119)"/>
    <path style="fill:none;stroke:#000;stroke-width:80;stroke-linecap:round;stroke-linejoin:round;stroke-dasharray:none;paint-order:fill markers stroke" d="M370 758.189V790h260v-32.013A37.987 37.987 45 0 0 592.013 720H408.19A38.189 38.189 135 0 0 370 758.189Z" transform="translate(-84.623 -578.358)"/>
    <path style="fill:none;stroke:#000;stroke-width:69.9055;stroke-linecap:round;stroke-linejoin:round;stroke-dasharray:none;paint-order:fill markers stroke" d="M194.11 362.763s73.112-29.08 109.925-25.006c37.481 4.148 72.39 50.012 109.925 50.012 37.536 0 72.444-45.864 109.925-50.012 36.814-4.075 109.925 25.006 109.925 25.006M194.191 500.058s73.112-29.08 109.925-25.006c37.48 4.148 72.39 50.012 109.925 50.012 37.536 0 72.444-45.864 109.925-50.012 36.813-4.075 109.925 25.006 109.925 25.006"/>
    <path style="fill:none;fill-opacity:1;stroke:#000;stroke-width:60;stroke-linecap:round;stroke-linejoin:round;stroke-dasharray:none;stroke-opacity:1" d="M625.848 635.17H734.63V233.293h75.31"/>
</svg>
